icons/linear-ele-drink-ice-tea.svg

<svg xmlns="http://www.w3.org/2000/svg" width="32px" height="32px" viewBox="0 0 32 32" version="1.1">
    <title>linear-ele-drink-ice-tea</title>
    <g id="linear-ele-drink-ice-tea" stroke-width="1" fill-rule="evenodd">
        <path d="M16,1 C20.8781121,1 24.9404265,4.49284521 25.8224133,9.11400577 C27.079246,9.47142999 28,10.6281882 28,12 L28,14 C28,15.3484131 27.1103884,16.4890462 25.8860666,16.866998 L23.9899495,30.1414214 C23.9195711,30.6340701 23.4976504,31 23,31 L9,31 C8.50234962,31 8.0804289,30.6340701 8.01005051,30.1414214 L6.11393342,16.866998 C4.88961161,16.4890462 4,15.3484131 4,14 L4,12 C4,10.6281882 4.92075399,9.47142999 6.1779691,9.11401826 C7.05957349,4.49284521 11.1218879,1 16,1 Z M23.847,17 L8.152,17 L9.866,29 L22.133,29 L23.847,17 Z M15,25 C15.5522847,25 16,25.4477153 16,26 C16,26.5522847 15.5522847,27 15,27 C14.4477153,27 14,26.5522847 14,26 C14,25.4477153 14.4477153,25 15,25 Z M19,23 C19.5522847,23 20,23.4477153 20,24 C20,24.5522847 19.5522847,25 19,25 C18.4477153,25 18,24.5522847 18,24 C18,23.4477153 18.4477153,23 19,23 Z M13,21 C13.5522847,21 14,21.4477153 14,22 C14,22.5522847 13.5522847,23 13,23 C12.4477153,23 12,22.5522847 12,22 C12,21.4477153 12.4477153,21 13,21 Z M17,19 C17.5522847,19 18,19.4477153 18,20 C18,20.5522847 17.5522847,21 17,21 C16.4477153,21 16,20.5522847 16,20 C16,19.4477153 16.4477153,19 17,19 Z M25,11 L7,11 C6.44771525,11 6,11.4477153 6,12 L6,14 C6,14.5522847 6.44771525,15 7,15 L25,15 C25.5522847,15 26,14.5522847 26,14 L26,12 C26,11.4477153 25.5522847,11 25,11 Z M16,3 C12.2720892,3 9.13973081,5.54986283 8.25186923,9.00064404 L23.7481308,9.00064404 C22.8602692,5.54986283 19.7279108,3 16,3 Z" id="&#24418;&#29366;" fill-rule="nonzero" />
    </g>
</svg>

<svg xmlns="http://www.w3.org/2000/svg" viewBox="0 0 32 32"><path fill="currentColor" d="M16 1c4.878 0 8.94 3.493 9.822 8.114A3.001 3.001 0 0 1 28 12v2c0 1.348-.89 2.489-2.114 2.867L23.99 30.141A1 1 0 0 1 23 31H9a1 1 0 0 1-.99-.859L6.114 16.867A3.001 3.001 0 0 1 4 14v-2c0-1.372.92-2.529 2.178-2.886C7.06 4.493 11.122 1 16 1m7.847 16H8.152l1.714 12h12.267zM15 25a1 1 0 1 1 0 2 1 1 0 0 1 0-2m4-2a1 1 0 1 1 0 2 1 1 0 0 1 0-2m-6-2a1 1 0 1 1 0 2 1 1 0 0 1 0-2m4-2a1 1 0 1 1 0 2 1 1 0 0 1 0-2m8-8H7a1 1 0 0 0-1 1v2a1 1 0 0 0 1 1h18a1 1 0 0 0 1-1v-2a1 1 0 0 0-1-1m-9-8a8.003 8.003 0 0 0-7.748 6h15.496C22.86 5.55 19.728 3 16 3"/></svg>
